X:580
T:Pal Ximielgue La Xana
C:Tradicional
S:Msica Tradicional Asturiana, (C) Tello & Tito. Asturies, 2001.
S:http://pagina.de/MusTradAst <telloytito@asturies.org>
A:Asturies
M:2/4
L:1/8
Q:2/4=100
K:C
|:E2 CD|E2 C2|FE DF|E4|
AG FA|GF EG|FE DE|C2 B,2|
E2 B,/C/D|E2 C2|FE DF|EE FG|
A2 F/G/A|G2 E2|FE DF|EE FG|
A2 F/G/A|G2 c2|FE DF|E4:|
M:6/8
|:C6 |EDC FED|G2E EFG|F2D DEF|
E3 C3|EDC FED|G2E EFG|F2D FED:|
|:C2G C3|G2G CDE|F2D DEF|GFE FED|
E3 C3|G2G CDE|F2D DEF|GFE FED:|
